X: 1680
T: Another String To Your Bow
R: slip jig
M: 9/8
K: Gdorian
B3 GFD B,2G,|G3 AGA BAF|B3 GFD B,2G,|CDE FDE FGc:|
Dd2 cAG AGE|Dd2 fed fed|Dd2 cAG cAc|dcA cAc dAF:|
gAB gAB cde|fAc fAc Aag|fed fed fg^g|aAA gAA fAA:|

